X:195
T: IHR BRUEDER JETZT GEHTS IN DIE WEITE WELT
N: E1337
O: Europa, Mitteleuropa, Deutschland, Schleswig - Holstein
R: Staende -, Soldaten -, Kriegs - Lied
M: 4/4
L: 1/8
K: G
D2 | G2GGGABc | edddd2
gg | d3ec3c | BcdBG2
Bc | d2d2c2c2 | B2dBA2
Bc | d2d2c2c2 | B2dBA2
BA | G2G2e2e2 | d4
e3e | edcBdcA2 | G2z4
BA | G2G2e2e2 | d4
e3e | edcBdcA2 | G2z4

@@@ Tune index: 4879
